X:0710
T:Hamilton House
P:Colonel Hamilton's Delight
C:Joseph Reinagle, here from Gow's 2nd Coll. 1788
R:Jig (8x32)
B:RSCDS 7-10
Z:Anselm Lingnau <anselm@strathspey.org>
M:6/8
L:1/8
K:G
"G"g3 dBd|"Am"c2B "D"A2c|"G"BdB A2G|"D7"F>EF D3|\
"G"g3 dBd|"Am"c2B Ace|
                      "G"dcB "D"AGF|"G"G3 G3||\
"G"D3 "C"ECE|"G"DGB d2d|"Am"c2B "A7"A2G|"D7"FEF D2D|
"Am"E2c cde|"G"dBG G2g|"G"dBG "D7"cAF|"G"G3 G2 \
|:B/c/|"G"dBd "C"ege|"G"dBd "Am"c2A|
                                    "G"dBG "C"EFG|"A"ABG "D7"FED|\
       "G"dBd "C"ege|"G"dBd "Am"c2A|"G"dBG "D7"DEF|"G"G3 G2:|

